assets/img/icons/duotone-icons/Clothes/Sun-glasses.svg

<?xml version="1.0" encoding="UTF-8"?>
<svg width="24px" height="24px" viewBox="0 0 24 24" version="1.1" xmlns="http://www.w3.org/2000/svg" xmlns:xlink="http://www.w3.org/1999/xlink">
    <!-- Generator: Sketch 52.2 (67145) - http://www.bohemiancoding.com/sketch -->
    <title>Stockholm-icons / Clothes / Sun-glasses</title>
    <desc>Created with Sketch.</desc>
    <g id="Stockholm-icons-/-Clothes-/-Sun-glasses" stroke="none" stroke-width="1" fill="none" fill-rule="evenodd">
        <polygon id="Shape" points="0 0 24 0 24 24 0 24"></polygon>
        <path d="M9.89442719,16.9422697 L8.10557281,16.0478425 C9.18098918,13.8970098 11.7963808,13.0252125 13.9472136,14.1006289 C14.7898516,14.5219479 15.4731082,15.2052045 15.8944272,16.0478425 L14.1055728,16.9422697 C13.8777812,16.4866865 13.5083696,16.1172749 13.0527864,15.8894833 C11.8899107,15.3080454 10.4758651,15.7793939 9.89442719,16.9422697 Z M21.9058667,8.11925961 C22.4393328,8.26220142 22.7559153,8.81053838 22.6129734,9.34400448 L20.9657703,15.4914504 C20.8228285,16.0249165 20.2744915,16.341499 19.7410254,16.1985572 C19.2075593,16.0556153 18.8909768,15.5072784 19.0339186,14.9738123 L20.6811218,8.82636639 C20.8240636,8.29290029 21.3724006,7.9763178 21.9058667,8.11925961 Z M2.09413334,8.11925961 C2.62759945,7.9763178 3.1759364,8.29290029 3.31887821,8.82636639 L4.87179248,14.6219213 C5.0147343,15.1553875 4.69815181,15.7037244 4.1646857,15.8466662 C3.6312196,15.989608 3.08288264,15.6730255 2.93994083,15.1395594 L1.38702656,9.34400448 C1.24408475,8.81053838 1.56066724,8.26220142 2.09413334,8.11925961 Z" id="Combined-Shape" fill="#335EEA" opacity="0.3"></path>
        <path d="M6.5,20 C4.01471863,20 2,17.9852814 2,15.5 C2,13.0147186 4.01471863,11 6.5,11 C8.98528137,11 11,13.0147186 11,15.5 C11,17.9852814 8.98528137,20 6.5,20 Z M17.5,20 C15.0147186,20 13,17.9852814 13,15.5 C13,13.0147186 15.0147186,11 17.5,11 C19.9852814,11 22,13.0147186 22,15.5 C22,17.9852814 19.9852814,20 17.5,20 Z" id="Combined-Shape" fill="#335EEA"></path>
    </g>
</svg>

<svg width="24" height="24" viewBox="0 0 24 24" xmlns="http://www.w3.org/2000/svg"><g fill="none" fill-rule="evenodd"><path d="M0 0h24v24H0z"/><path d="M9.894 16.942l-1.788-.894a4.354 4.354 0 017.788 0l-1.788.894a2.354 2.354 0 00-4.212 0zM21.906 8.12a1 1 0 01.707 1.225l-1.647 6.147a1 1 0 01-1.932-.517l1.647-6.148a1 1 0 011.225-.707zm-19.812 0a1 1 0 011.225.707l1.553 5.796a1 1 0 11-1.932.518L1.387 9.344a1 1 0 01.707-1.225z" fill="#335EEA" opacity=".3"/><path d="M6.5 20a4.5 4.5 0 110-9 4.5 4.5 0 010 9zm11 0a4.5 4.5 0 110-9 4.5 4.5 0 010 9z" fill="#335EEA"/></g></svg>
